src/assets/mail.svg

<svg width="15" height="12" viewBox="0 0 15 12" fill="none" xmlns="http://www.w3.org/2000/svg">
<path d="M14.707 4.4707C14.8242 4.38281 15 4.4707 15 4.61719V10.5938C15 11.3848 14.3555 12 13.5938 12H1.40625C0.615234 12 0 11.3848 0 10.5938V4.61719C0 4.4707 0.146484 4.38281 0.263672 4.4707C0.9375 4.99805 1.78711 5.64258 4.77539 7.81055C5.39062 8.25 6.44531 9.2168 7.5 9.2168C8.52539 9.2168 9.60938 8.25 10.1953 7.81055C13.1836 5.64258 14.0332 4.99805 14.707 4.4707ZM7.5 8.25C6.79688 8.2793 5.83008 7.40039 5.33203 7.04883C1.43555 4.23633 1.14258 3.97266 0.263672 3.26953C0.0878906 3.15234 0 2.94727 0 2.71289V2.15625C0 1.39453 0.615234 0.75 1.40625 0.75H13.5938C14.3555 0.75 15 1.39453 15 2.15625V2.71289C15 2.94727 14.8828 3.15234 14.707 3.26953C13.8281 3.97266 13.5352 4.23633 9.63867 7.04883C9.14062 7.40039 8.17383 8.2793 7.5 8.25Z" fill="#ABABAB"/>
</svg>

<svg xmlns="http://www.w3.org/2000/svg" width="15" height="12" fill="none" viewBox="0 0 15 12"><path fill="#ababab" d="M14.707 4.47c.117-.087.293 0 .293.147v5.977c0 .79-.645 1.406-1.406 1.406H1.406A1.39 1.39 0 0 1 0 10.594V4.617c0-.146.146-.234.264-.146.674.527 1.523 1.172 4.511 3.34.616.439 1.67 1.406 2.725 1.406 1.025 0 2.11-.967 2.695-1.406 2.989-2.168 3.838-2.813 4.512-3.34M7.5 8.25c-.703.03-1.67-.85-2.168-1.201-3.896-2.813-4.19-3.076-5.068-3.78C.088 3.153 0 2.948 0 2.714v-.557C0 1.395.615.75 1.406.75h12.188C14.355.75 15 1.395 15 2.156v.557c0 .234-.117.44-.293.557-.879.703-1.172.966-5.068 3.779C9.14 7.4 8.174 8.279 7.5 8.25"/></svg>
